X: 11321
Q "Andante Affettuoso"
M: 6/8
L: 1/8
K: G
(G/A/) | B c A G2 B/ c/ | d d e A2 B |
c B A d F G | E c B {B}A2 A |
d ^c B A2 A/ A/ | B e d ^c2 c | d f d
d B G A2 B | c< B e d< B G |
c2 B A2 d | B< G g e< c A | F2 A G2 A |
(B/c/d/B/A/G/) (F/A/D/A/d/c/) | B/c/d/B/A/G/ A2c | B<dg e<cA | F2 "_Da Capo"(A G2) :|



